icons/svg/entertainment/dance_floor.svg

<?xml version="1.0" encoding="UTF-8" standalone="no"?>
<!-- Created with Inkscape (http://www.inkscape.org/) -->

<svg
   xmlns:dc="http://purl.org/dc/elements/1.1/"
   xmlns:cc="http://creativecommons.org/ns#"
   xmlns:rdf="http://www.w3.org/1999/02/22-rdf-syntax-ns#"
   xmlns:svg="http://www.w3.org/2000/svg"
   xmlns="http://www.w3.org/2000/svg"
   xmlns:sodipodi="http://sodipodi.sourceforge.net/DTD/sodipodi-0.dtd"
   xmlns:inkscape="http://www.inkscape.org/namespaces/inkscape"
   version="1.0"
   width="580"
   height="580"
   id="svg2"
   sodipodi:version="0.32"
   inkscape:version="0.91 r"
   sodipodi:docname="dance_floor.svg"
   inkscape:output_extension="org.inkscape.output.svg.inkscape">
  <metadata
     id="metadata10">
    <rdf:RDF>
      <cc:Work
         rdf:about="">
        <dc:format>image/svg+xml</dc:format>
        <dc:type
           rdf:resource="http://purl.org/dc/dcmitype/StillImage" />
        <cc:license
           rdf:resource="http://web.resource.org/cc/PublicDomain" />
        <dc:language>en</dc:language>
        <dc:title></dc:title>
      </cc:Work>
    </rdf:RDF>
  </metadata>
  <sodipodi:namedview
     inkscape:window-height="1004"
     inkscape:window-width="1920"
     inkscape:pageshadow="2"
     inkscape:pageopacity="0.0"
     guidetolerance="10.0"
     gridtolerance="10.0"
     objecttolerance="10.0"
     borderopacity="1.0"
     bordercolor="#666666"
     pagecolor="#ffffff"
     id="base"
     showgrid="false"
     inkscape:zoom="0.5"
     inkscape:cx="539.21443"
     inkscape:cy="425.32841"
     inkscape:window-x="1680"
     inkscape:window-y="0"
     inkscape:current-layer="svg2"
     showguides="true"
     inkscape:guide-bbox="true"
     inkscape:window-maximized="1" />
  <defs
     id="defs4">
    <inkscape:perspective
       sodipodi:type="inkscape:persp3d"
       inkscape:vp_x="0 : 290 : 1"
       inkscape:vp_y="0 : 1000 : 0"
       inkscape:vp_z="580 : 290 : 1"
       inkscape:persp3d-origin="290 : 193.33333 : 1"
       id="perspective12" />
    <style
       type="text/css"
       id="style6">
   
    .fil0 {fill:#EF7900}
   
  </style>
    <inkscape:perspective
       id="perspective6807"
       inkscape:persp3d-origin="29.116032 : 19.410688 : 1"
       inkscape:vp_z="58.232063 : 29.116032 : 1"
       inkscape:vp_y="0 : 1000 : 0"
       inkscape:vp_x="0 : 29.116032 : 1"
       sodipodi:type="inkscape:persp3d" />
    <inkscape:perspective
       id="perspective6954"
       inkscape:persp3d-origin="290 : 193.33333 : 1"
       inkscape:vp_z="580 : 290 : 1"
       inkscape:vp_y="0 : 1000 : 0"
       inkscape:vp_x="0 : 290 : 1"
       sodipodi:type="inkscape:persp3d" />
    <inkscape:perspective
       id="perspective2541"
       inkscape:persp3d-origin="240 : 160 : 1"
       inkscape:vp_z="480 : 240 : 1"
       inkscape:vp_y="0 : 1000 : 0"
       inkscape:vp_x="0 : 240 : 1"
       sodipodi:type="inkscape:persp3d" />
    <inkscape:perspective
       id="perspective2750"
       inkscape:persp3d-origin="215 : 143.33333 : 1"
       inkscape:vp_z="430 : 215 : 1"
       inkscape:vp_y="0 : 1000 : 0"
       inkscape:vp_x="0 : 215 : 1"
       sodipodi:type="inkscape:persp3d" />
    <inkscape:perspective
       id="perspective2830"
       inkscape:persp3d-origin="0.5 : 0.33333333 : 1"
       inkscape:vp_z="1 : 0.5 : 1"
       inkscape:vp_y="0 : 1000 : 0"
       inkscape:vp_x="0 : 0.5 : 1"
       sodipodi:type="inkscape:persp3d" />
    <inkscape:perspective
       id="perspective3648"
       inkscape:persp3d-origin="0.5 : 0.33333333 : 1"
       inkscape:vp_z="1 : 0.5 : 1"
       inkscape:vp_y="0 : 1000 : 0"
       inkscape:vp_x="0 : 0.5 : 1"
       sodipodi:type="inkscape:persp3d" />
    <inkscape:perspective
       id="perspective3675"
       inkscape:persp3d-origin="0.5 : 0.33333333 : 1"
       inkscape:vp_z="1 : 0.5 : 1"
       inkscape:vp_y="0 : 1000 : 0"
       inkscape:vp_x="0 : 0.5 : 1"
       sodipodi:type="inkscape:persp3d" />
  </defs>
  <g
     id="g1327">
    <path
       d="M 66.275,1.768 C 24.94,1.768 1.704,23.139 1.704,66.804 L 1.704,516.927 C 1.704,557.771 22.598,579.156 63.896,579.156 L 515.92,579.156 C 557.227,579.156 578.149,558.84 578.149,516.927 L 578.149,66.804 C 578.149,24.203 557.227,1.768 514.627,1.768 C 514.624,1.768 66.133,1.625 66.275,1.768 z"
       style="fill:#111111;stroke:#eeeeee;stroke-width:3.40799999"
       id="path1329" />
  </g>
  <circle
     cx="215.99928"
     cy="71.229095"
     r="48.0229"
     id="circle3"
     style="fill:#ffffff;fill-opacity:1" />
  <path
     inkscape:connector-curvature="0"
     d="m 420.89712,148.06558 c -6.40306,-9.60459 -18.14198,-11.73894 -27.74657,-5.33589 l -45.88854,30.94809 -48.0229,-48.02289 c -4.26871,-4.26871 -11.73892,-6.40307 -18.14198,-5.33587 l -98.18014,20.27632 c -6.40307,1.06717 -11.73893,6.40305 -13.87329,11.73893 l -33.08244,84.30686 -61.896178,-16.00762 c -10.671752,-2.13436 -21.343516,4.2687 -23.477864,14.94045 -2.134348,10.67176 4.268708,21.34352 13.873286,24.54504 l 78.970976,20.27633 c 1.06718,0 3.20154,1.06718 4.2687,1.06718 7.47024,0 14.94046,-5.33588 18.142,-12.80611 l 11.73891,-28.81373 0,93.92213 -30.94807,86.43054 c -2.13436,4.26869 -2.13436,9.60457 0,14.94044 l 43.13522,108.85191 c 3.20153,7.47023 10.67175,12.80611 18.14198,12.80611 2.13437,0 5.33588,0 7.47024,-1.06718 9.60457,-4.2687 14.94045,-16.00763 10.67176,-25.61221 l -33.53067,-104.5832 40.55268,-89.64276 11.73892,88.58624 c 0,4.25805 1.06719,8.53743 4.26872,11.73895 l 64.74553,87.2416 c 4.26871,5.33587 9.60459,7.45954 16.00763,7.45954 4.26871,0 8.54808,-1.06716 11.74961,-4.25802 8.53741,-6.41372 10.67176,-19.20916 4.25804,-27.75723 l -59.40968,-81.90572 0,-250.78626 45.89923,46.95573 c 6.40304,6.40303 17.0748,7.47023 24.54503,2.13435 l 58.69465,-39.4855 c 8.52674,-6.40306 11.72827,-18.14198 5.32521,-27.74655 z"
     id="path5"
     style="fill:#ffffff;fill-opacity:1" />
  <path
     inkscape:connector-curvature="0"
     d="m 520.14447,289.99992 c -21.34347,0 -28.81378,-10.67175 -49.09007,-10.67175 -4.26875,0 -5.33593,3.20152 -5.33593,10.67175 0,13.87328 0,59.76182 0,74.70229 0,14.94045 -2.13437,42.68701 -42.687,42.68701 -36.28398,0 -42.68701,-23.47786 -42.68701,-32.01526 0,-19.20916 11.73892,-32.01527 42.68701,-32.01527 21.34352,0 21.34352,-9.60458 21.34352,-21.34351 0,-42.68701 0,-68.29923 0,-74.70227 0,-5.33589 2.12364,-10.67178 10.67175,-10.67178 36.27335,0 25.60149,10.67178 64.03055,10.67178 6.403,0 10.67175,2.13434 10.67175,10.67174 0,5.33588 0,8.53739 0,22.41068 1.06717,9.60459 -9.60457,9.60459 -9.60457,9.60459 z"
     id="path7"
     style="fill:#ffffff;fill-opacity:1" />
</svg>

<svg width="580" height="580" viewBox="0 0 580 580" fill="none" xmlns="http://www.w3.org/2000/svg">
<g clip-path="url(#clip0)">
<path d="M66.275 1.76802C24.94 1.76802 1.70398 23.139 1.70398 66.804V516.927C1.70398 557.771 22.598 579.156 63.896 579.156H515.92C557.227 579.156 578.149 558.84 578.149 516.927V66.804C578.149 24.203 557.227 1.76802 514.627 1.76802C514.624 1.76802 66.133 1.62502 66.275 1.76802Z" fill="#111111" stroke="#EEEEEE" stroke-width="3.408"/>
<path d="M215.999 119.252C242.522 119.252 264.022 97.7514 264.022 71.2291C264.022 44.7068 242.522 23.2062 215.999 23.2062C189.477 23.2062 167.976 44.7068 167.976 71.2291C167.976 97.7514 189.477 119.252 215.999 119.252Z" fill="white"/>
<path d="M420.897 148.066C414.494 138.461 402.755 136.327 393.151 142.73L347.262 173.678L299.239 125.655C294.97 121.386 287.5 119.252 281.097 120.319L182.917 140.595C176.514 141.663 171.178 146.998 169.044 152.334L135.961 236.641L74.065 220.634C63.3933 218.499 52.7215 224.902 50.5872 235.574C48.4528 246.246 54.8559 256.918 64.4605 260.119L143.431 280.395C144.499 280.395 146.633 281.463 147.7 281.463C155.17 281.463 162.641 276.127 165.842 268.656L177.581 239.843V333.765L146.633 420.195C144.499 424.464 144.499 429.8 146.633 435.136L189.768 543.988C192.97 551.458 200.44 556.794 207.91 556.794C210.045 556.794 213.246 556.794 215.38 555.727C224.985 551.458 230.321 539.719 226.052 530.114L192.521 425.531L233.074 335.889L244.813 424.475C244.813 428.733 245.88 433.012 249.082 436.214L313.827 523.455C318.096 528.791 323.432 530.915 329.835 530.915C334.104 530.915 338.383 529.848 341.585 526.657C350.122 520.243 352.256 507.448 345.843 498.9L286.433 416.994V166.208L332.332 213.163C338.735 219.566 349.407 220.634 356.877 215.298L415.572 175.812C424.099 169.409 427.3 157.67 420.897 148.066V148.066Z" fill="white"/>
<path d="M520.145 290C498.801 290 491.331 279.328 471.054 279.328C466.786 279.328 465.719 282.53 465.719 290C465.719 303.873 465.719 349.762 465.719 364.702C465.719 379.643 463.584 407.389 423.031 407.389C386.748 407.389 380.344 383.911 380.344 375.374C380.344 356.165 392.083 343.359 423.031 343.359C444.375 343.359 444.375 333.754 444.375 322.015C444.375 279.328 444.375 253.716 444.375 247.313C444.375 241.977 446.499 236.641 455.047 236.641C491.32 236.641 480.648 247.313 519.077 247.313C525.48 247.313 529.749 249.447 529.749 257.985C529.749 263.321 529.749 266.522 529.749 280.395C530.816 290 520.145 290 520.145 290Z" fill="white"/>
</g>
<defs>
<clipPath id="clip0">
<path d="M0 0H580V580H0V0Z" fill="white"/>
</clipPath>
</defs>
</svg>
